femmes/public/img/illustrations/slide6/purple-ice-skate-down.svg

<?xml version="1.0" encoding="UTF-8" standalone="no"?>
<svg
   width="281"
   height="342"
   viewBox="0 0 281 342"
   fill="none"
   version="1.1"
   id="svg298"
   sodipodi:docname="purple-ice-skate-down.svg"
   inkscape:version="1.1.2 (0a00cf5339, 2022-02-04)"
   xmlns:inkscape="http://www.inkscape.org/namespaces/inkscape"
   xmlns:sodipodi="http://sodipodi.sourceforge.net/DTD/sodipodi-0.dtd"
   xmlns="http://www.w3.org/2000/svg"
   xmlns:svg="http://www.w3.org/2000/svg">
  <sodipodi:namedview
     id="namedview300"
     pagecolor="#ffffff"
     bordercolor="#666666"
     borderopacity="1.0"
     inkscape:pageshadow="2"
     inkscape:pageopacity="0.0"
     inkscape:pagecheckerboard="0"
     showgrid="false"
     inkscape:zoom="1.412588"
     inkscape:cx="192.20041"
     inkscape:cy="231.49"
     inkscape:window-width="1916"
     inkscape:window-height="1053"
     inkscape:window-x="0"
     inkscape:window-y="0"
     inkscape:window-maximized="1"
     inkscape:current-layer="svg298" />
  <g
     clip-path="url(#clip0_382_240)"
     id="g289"
     transform="translate(-18,-66)">
    <path
       d="m 231.466,240.487 c 0.283,0.872 0.49,1.773 0.618,2.694 0.607,4.418 -0.703,8.911 -3.592,12.328 L 213.747,272.942 46.3963,159.865 43.151,132.438 c -0.5369,-4.533 1.5655,-8.828 5.4858,-11.208 3.9202,-2.379 8.7102,-2.269 12.501,0.29 L 225.302,232.299 c 2.931,1.978 5.091,4.875 6.164,8.188 z m -18.321,28.064 12.82,-15.159 c 2.287,-2.703 3.323,-6.259 2.843,-9.755 -0.482,-3.496 -2.437,-6.634 -5.367,-8.612 L 59.2776,124.246 c -2.7076,-1.826 -6.128,-1.905 -8.927,-0.206 -2.7996,1.699 -4.3017,4.766 -3.9178,8.004 l 3.0691,25.937 z"
       fill="#000000"
       id="path246" />
    <path
       d="m 206.284,244.158 c 0.23,0.708 0.397,1.438 0.5,2.186 0.493,3.585 -0.57,7.229 -2.913,10.001 l -11.842,14 L 59.5431,180.826 56.9623,159.02 c -0.4396,-3.715 1.2833,-7.235 4.4961,-9.185 3.2121,-1.951 7.1373,-1.859 10.2434,0.237 l 129.5802,87.441 c 2.378,1.605 4.13,3.956 5.001,6.643 z m -14.857,21.797 9.917,-11.726 c 1.741,-2.059 2.53,-4.766 2.165,-7.429 -0.366,-2.661 -1.856,-5.052 -4.087,-6.558 L 69.8424,152.8 c -2.0225,-1.364 -4.578,-1.424 -6.6704,-0.154 -2.0913,1.27 -3.2129,3.561 -2.9277,5.98 l 2.4046,20.316 z"
       fill="#000000"
       id="path248" />
    <path
       d="M 35.5747,347.01 85.1123,269.34 34.2825,203.091 c -7.0073,-9.132 -7.3441,-21.724 -0.836,-31.256 L 45.7144,153.869 216.403,269.2 125.35,407.67 Z"
       fill="#554596"
       id="path250" />
    <mask
       id="mask0_382_240"
       maskUnits="userSpaceOnUse"
       x="28"
       y="153"
       width="189"
       height="255">
      <path
         d="M 35.5747,347.01 85.1123,269.34 34.2825,203.091 c -7.0073,-9.132 -7.3441,-21.724 -0.836,-31.256 L 45.7144,153.869 216.403,269.2 125.35,407.67 Z"
         fill="#ffffff"
         id="path252" />
    </mask>
    <g
       mask="url(#mask0_382_240)"
       id="g283">
      <path
         d="m 33.736,164.335 178.887,136.361 2.014,-2.617 L 35.75,161.719 Z"
         fill="#000000"
         id="path255" />
      <path
         d="m 22.8307,209.518 32.1378,10.357 59.6295,50.738 -47.1155,101.758"
         fill="#554596"
         id="path257" />
      <path
         d="M 116.622,270.168 68.9832,373.057 65.9816,371.685 112.574,271.058 54.1425,221.341 22.3178,211.084 l 1.0255,-3.132 32.4513,10.458 z"
         fill="#000000"
         id="path259" />
      <path
         d="m 62.4494,244.312 31.773,-6.086 -0.6151,-3.233 -31.773,6.086 z"
         fill="#000000"
         id="path261" />
      <path
         d="m 64.2452,261.459 45.1188,-8.643 -0.615,-3.233 -45.1189,8.643 z"
         fill="#000000"
         id="path263" />
      <path
         d="m 59.9277,273.417 67.7563,-1.018 -0.04,-3.291 -67.7563,1.017 z"
         fill="#000000"
         id="path265" />
      <path
         d="m 56.8143,274.426 63.0387,24.566 1.213,-3.067 -63.039,-24.566 z"
         fill="#000000"
         id="path267" />
      <path
         d="m 41.2133,289.723 63.0387,24.566 1.213,-3.066 -63.0393,-24.567 z"
         fill="#000000"
         id="path269" />
      <path
         d="m 31.6742,308.299 63.0391,24.566 1.2124,-3.066 -63.0391,-24.566 z"
         fill="#000000"
         id="path271" />
      <path
         d="m 22.1185,326.906 63.0392,24.566 1.2124,-3.066 -63.0392,-24.566 z"
         fill="#000000"
         id="path273" />
      <path
         d="m 121.306,294.983 c -0.727,-2.241 -3.142,-3.466 -5.395,-2.736 -2.252,0.73 -3.489,3.139 -2.763,5.38 0.727,2.242 3.142,3.467 5.395,2.736 2.252,-0.73 3.489,-3.139 2.763,-5.38 z"
         fill="#554596"
         id="path275" />
      <path
         d="m 128.841,269.403 c -0.726,-2.242 -3.141,-3.467 -5.394,-2.736 -2.253,0.73 -3.49,3.139 -2.763,5.38 0.726,2.242 3.142,3.466 5.394,2.736 2.253,-0.73 3.49,-3.139 2.763,-5.38 z"
         fill="#554596"
         id="path277" />
      <path
         d="m 110.238,250.37 c -0.726,-2.241 -3.142,-3.466 -5.394,-2.736 -2.253,0.731 -3.49,3.139 -2.763,5.381 0.726,2.241 3.141,3.466 5.394,2.736 2.253,-0.73 3.49,-3.139 2.763,-5.381 z"
         fill="#554596"
         id="path279" />
      <path
         d="m 95.2448,235.778 c -0.7266,-2.241 -3.1417,-3.466 -5.3944,-2.736 -2.2526,0.731 -3.4897,3.14 -2.7631,5.381 0.7266,2.241 3.1417,3.466 5.3944,2.736 2.2526,-0.73 3.4897,-3.139 2.7631,-5.381 z"
         fill="#554596"
         id="path281" />
    </g>
    <path
       d="m 58.6197,339.34 -24.6196,8.451 c -4.3462,1.492 -8.9132,0.276 -11.9188,-3.174 -3.0061,-3.45 -3.5714,-8.127 -1.4774,-12.204 2.7754,-5.405 9.4417,-7.566 14.8593,-4.817 z m -35.5893,0.373 c 0.3473,1.071 0.9102,2.008 1.5506,2.742 1.6501,1.895 4.7103,3.474 8.3496,2.225 l 17.2479,-5.921 -16.2227,-8.228 c -3.7956,-1.925 -8.4658,-0.411 -10.4108,3.375 -1.0736,2.09 -1.0629,4.116 -0.5146,5.807 z"
       fill="#000000"
       id="path285" />
    <path
       d="m 72.441,358.824 c 0.8603,2.654 0.6533,5.568 -0.686,8.238 -2.0555,4.097 -6.1754,6.424 -10.754,6.073 -2.9396,-0.226 -5.6116,-1.578 -7.5245,-3.808 -1.9121,-2.231 -2.8356,-5.071 -2.601,-7.999 l 2.0737,-25.835 17.2108,19.381 c 1.0578,1.19 1.8219,2.534 2.281,3.95 z m -17.9251,5.736 c 0.3085,0.951 0.8057,1.842 1.4776,2.624 1.34,1.563 3.2115,2.51 5.2714,2.668 3.8346,0.295 6.4059,-2.005 7.5349,-4.254 1.1274,-2.249 1.4269,-5.674 -1.1177,-8.539 l -12.0572,-13.578 -1.4533,18.1 c -0.0827,1.023 0.0371,2.031 0.3443,2.979 z"
       fill="#000000"
       id="path287" />
  </g>
  <path
     d="M 29.3091,22.4499 279.818,191.432 M 35.7886,1.8789 180.483,98.847"
     stroke="#554596"
     stroke-width="3"
     id="path291" />
  <defs
     id="defs296">
    <clipPath
       id="clip0_382_240">
      <rect
         width="296.45801"
         height="232.201"
         fill="#ffffff"
         transform="rotate(-107.962,181.8997,198.11724)"
         id="rect293"
         x="0"
         y="0" />
    </clipPath>
  </defs>
</svg>

<svg width="360" height="435" viewBox="0 0 360 435" fill="none" xmlns="http://www.w3.org/2000/svg">
<g clip-path="url(#clip0_382_240)">
<path d="M231.466 240.487C231.749 241.359 231.956 242.26 232.084 243.181C232.691 247.599 231.381 252.092 228.492 255.509L213.747 272.942L46.3963 159.865L43.151 132.438C42.6141 127.905 44.7165 123.61 48.6368 121.23C52.557 118.851 57.347 118.961 61.1378 121.52L225.302 232.299C228.233 234.277 230.393 237.174 231.466 240.487ZM213.145 268.551L225.965 253.392C228.252 250.689 229.288 247.133 228.808 243.637C228.326 240.141 226.371 237.003 223.441 235.025L59.2776 124.246C56.57 122.42 53.1496 122.341 50.3506 124.04C47.551 125.739 46.0489 128.806 46.4328 132.044L49.5019 157.981L213.145 268.551Z" fill="black"/>
<path d="M206.284 244.158C206.514 244.866 206.681 245.596 206.784 246.344C207.277 249.929 206.214 253.573 203.871 256.345L192.029 270.345L59.5431 180.826L56.9623 159.02C56.5227 155.305 58.2456 151.785 61.4584 149.835C64.6705 147.884 68.5957 147.976 71.7018 150.072L201.282 237.513C203.66 239.118 205.412 241.469 206.283 244.156L206.284 244.158ZM191.427 265.955L201.344 254.229C203.085 252.17 203.874 249.463 203.509 246.8C203.143 244.139 201.653 241.748 199.422 240.242L69.8424 152.8C67.8199 151.436 65.2644 151.376 63.172 152.646C61.0807 153.916 59.9591 156.207 60.2443 158.626L62.6489 178.942L191.427 265.955Z" fill="black"/>
<path d="M35.5747 347.01L85.1123 269.34L34.2825 203.091C27.2752 193.959 26.9384 181.367 33.4465 171.835L45.7144 153.869L216.403 269.2L125.35 407.67L35.5747 347.01Z" fill="#554596"/>
<mask id="mask0_382_240" style="mask-type:luminance" maskUnits="userSpaceOnUse" x="28" y="153" width="189" height="255">
<path d="M35.5747 347.01L85.1123 269.34L34.2825 203.091C27.2752 193.959 26.9384 181.367 33.4465 171.835L45.7144 153.869L216.403 269.2L125.35 407.67L35.5747 347.01Z" fill="white"/>
</mask>
<g mask="url(#mask0_382_240)">
<path d="M33.736 164.335L212.623 300.696L214.637 298.079L35.75 161.719L33.736 164.335Z" fill="black"/>
<path d="M22.8307 209.518L54.9685 219.875L114.598 270.613L67.4825 372.371" fill="#554596"/>
<path d="M116.622 270.168L68.9832 373.057L65.9816 371.685L112.574 271.058L54.1425 221.341L22.3178 211.084L23.3433 207.952L55.7946 218.41L116.622 270.168Z" fill="black"/>
<path d="M62.4494 244.312L94.2224 238.226L93.6073 234.993L61.8343 241.079L62.4494 244.312Z" fill="black"/>
<path d="M64.2452 261.459L109.364 252.816L108.749 249.583L63.6301 258.226L64.2452 261.459Z" fill="black"/>
<path d="M59.9277 273.417L127.684 272.399L127.644 269.108L59.8877 270.125L59.9277 273.417Z" fill="black"/>
<path d="M56.8143 274.426L119.853 298.992L121.066 295.925L58.027 271.359L56.8143 274.426Z" fill="black"/>
<path d="M41.2133 289.723L104.252 314.289L105.465 311.223L42.4257 286.656L41.2133 289.723Z" fill="black"/>
<path d="M31.6742 308.299L94.7133 332.865L95.9257 329.799L32.8866 305.233L31.6742 308.299Z" fill="black"/>
<path d="M22.1185 326.906L85.1577 351.472L86.3701 348.406L23.3309 323.84L22.1185 326.906Z" fill="black"/>
<path d="M121.306 294.983C120.579 292.742 118.164 291.517 115.911 292.247C113.659 292.977 112.422 295.386 113.148 297.627C113.875 299.869 116.29 301.094 118.543 300.363C120.795 299.633 122.032 297.224 121.306 294.983Z" fill="#554596"/>
<path d="M128.841 269.403C128.115 267.161 125.7 265.936 123.447 266.667C121.194 267.397 119.957 269.806 120.684 272.047C121.41 274.289 123.826 275.513 126.078 274.783C128.331 274.053 129.568 271.644 128.841 269.403Z" fill="#554596"/>
<path d="M110.238 250.37C109.512 248.129 107.096 246.904 104.844 247.634C102.591 248.365 101.354 250.773 102.081 253.015C102.807 255.256 105.222 256.481 107.475 255.751C109.728 255.021 110.965 252.612 110.238 250.37Z" fill="#554596"/>
<path d="M95.2448 235.778C94.5182 233.537 92.1031 232.312 89.8504 233.042C87.5978 233.773 86.3607 236.182 87.0873 238.423C87.8139 240.664 90.229 241.889 92.4817 241.159C94.7343 240.429 95.9714 238.02 95.2448 235.778Z" fill="#554596"/>
</g>
<path d="M58.6197 339.34L34.0001 347.791C29.6539 349.283 25.0869 348.067 22.0813 344.617C19.0752 341.167 18.5099 336.49 20.6039 332.413C23.3793 327.008 30.0456 324.847 35.4632 327.596L58.6197 339.34ZM23.0304 339.713C23.3777 340.784 23.9406 341.721 24.581 342.455C26.2311 344.35 29.2913 345.929 32.9306 344.68L50.1785 338.759L33.9558 330.531C30.1602 328.606 25.49 330.12 23.545 333.906C22.4714 335.996 22.4821 338.022 23.0304 339.713Z" fill="black"/>
<path d="M72.441 358.824C73.3013 361.478 73.0943 364.392 71.755 367.062C69.6995 371.159 65.5796 373.486 61.001 373.135C58.0614 372.909 55.3894 371.557 53.4765 369.327C51.5644 367.096 50.6409 364.256 50.8755 361.328L52.9492 335.493L70.16 354.874C71.2178 356.064 71.9819 357.408 72.441 358.824ZM54.5159 364.56C54.8244 365.511 55.3216 366.402 55.9935 367.184C57.3335 368.747 59.205 369.694 61.2649 369.852C65.0995 370.147 67.6708 367.847 68.7998 365.598C69.9272 363.349 70.2267 359.924 67.6821 357.059L55.6249 343.481L54.1716 361.581C54.0889 362.604 54.2087 363.612 54.5159 364.56Z" fill="black"/>
</g>
<path d="M47.3091 88.4499L297.818 257.432M53.7886 67.8789L198.483 164.847" stroke="#554596" stroke-width="3"/>
<defs>
<clipPath id="clip0_382_240">
<rect width="296.458" height="232.201" fill="white" transform="translate(49.5338 432.248) rotate(-107.962)"/>
</clipPath>
</defs>
</svg>
